public/images/message-notif.svg

<svg width="48" height="48" fill="none" xmlns="http://www.w3.org/2000/svg"><path d="M44 20v6c0 8-4 12-12 12h-1c-.62 0-1.23.3-1.6.8l-3 4c-1.32 1.76-3.49 1.76-4.81 0l-3-4c-.32-.44-1.06-.8-1.59-.8h-1C8 38 4 36 4 26V16C4 8 8 4 16 4h12" stroke="#1B31FF" stroke-width="2.2" stroke-linejoin="round" stroke-linecap="round"/><path d="M39 14c-2.77 0-5-2.24-5-5 0-2.77 2.23-5 5-5 2.76 0 5 2.23 5 5 0 2.76-2.24 5-5 5z" stroke="#1B31FF" stroke-width="2.2" stroke-linejoin="round"/><path d="M31.99 22h.02M23.99 22H24M15.98 22H16" stroke="#1B31FF" stroke-width="2.2" stroke-linejoin="round" stroke-linecap="round"/></svg>

<svg width="48.000000" height="48.000000" viewBox="0 0 48 48" fill="none" xmlns="http://www.w3.org/2000/svg" xmlns:xlink="http://www.w3.org/1999/xlink">
	<desc>
			Created with Pixso.
	</desc>
	<defs/>
	<path id="Vector" d="M44 20L44 26C44 34 40 38 32 38L31 38C30.38 38 29.77 38.3 29.4 38.8L26.4 42.8C25.08 44.56 22.91 44.56 21.59 42.8L18.59 38.8C18.27 38.36 17.53 38 17 38L16 38C8 38 4 36 4 26L4 16C4 8 8 4 16 4L28 4" stroke="#1B31FF" stroke-opacity="1.000000" stroke-width="2.200000" stroke-linejoin="round" stroke-linecap="round"/>
	<path id="Vector" d="M39 14C36.23 14 34 11.76 34 9C34 6.23 36.23 4 39 4C41.76 4 44 6.23 44 9C44 11.76 41.76 14 39 14Z" stroke="#1B31FF" stroke-opacity="1.000000" stroke-width="2.200000" stroke-linejoin="round"/>
	<path id="Vector" d="M31.99 22L32.01 22" stroke="#1B31FF" stroke-opacity="1.000000" stroke-width="2.200000" stroke-linejoin="round" stroke-linecap="round"/>
	<path id="Vector" d="M23.99 22L24 22" stroke="#1B31FF" stroke-opacity="1.000000" stroke-width="2.200000" stroke-linejoin="round" stroke-linecap="round"/>
	<path id="Vector" d="M15.98 22L16 22" stroke="#1B31FF" stroke-opacity="1.000000" stroke-width="2.200000" stroke-linejoin="round" stroke-linecap="round"/>
	<g opacity="0.000000"/>
</svg>
